X:1
T:Chariots of Fire .. Seconds
M:C
L:1/8
Q:80
C:4/4 March
S:
K:HP
fe/4d3/4{g}c2{e}A3{g}e | \
{g}fe/4d3/4{g}c4-c{g}e | \
{g}fe/4d3/4{g}c2{e}A3{g}e |
{g}f/4ec3/4{g}c4-c{g}e | \
{g}fe/4d3/4{g}c2{e}A3{g}e | \
{g}Bc/4d3/4{g}c4-c{g}e |
{g}Bc/4d3/4{g}c2{e}A3{g}e | \
{g}f/4ec3/4{g}c4-c|]
